src/assets/img/icons/duotone-icons/Devices/USB.svg

<svg width="24" height="24" viewBox="0 0 24 24" xmlns="http://www.w3.org/2000/svg"><g fill="none" fill-rule="evenodd"><path d="M0 0h24v24H0z"/><rect fill="#335EEA" x="4" y="9" width="16" height="9" rx="2"/><path d="M7 3h10v6H7V3zm2 2v2h2V5H9zm4 0v2h2V5h-2zM10 18h4v2a1 1 0 01-1 1h-2a1 1 0 01-1-1v-2z" fill="#335EEA" opacity=".3"/></g></svg>

<?xml version="1.0" encoding="UTF-8"?>
<svg width="24px" height="24px" viewBox="0 0 24 24" version="1.1" xmlns="http://www.w3.org/2000/svg" xmlns:xlink="http://www.w3.org/1999/xlink">
    <!-- Generator: Sketch 52.2 (67145) - http://www.bohemiancoding.com/sketch -->
    <title>Stockholm-icons / Devices / USB</title>
    <desc>Created with Sketch.</desc>
    <g id="Stockholm-icons-/-Devices-/-USB" stroke="none" stroke-width="1" fill="none" fill-rule="evenodd">
        <rect id="bound" x="0" y="0" width="24" height="24"></rect>
        <rect id="Rectangle-69" fill="#335EEA" x="4" y="9" width="16" height="9" rx="2"></rect>
        <path d="M7,3 L17,3 L17,9 L7,9 L7,3 Z M9,5 L9,7 L11,7 L11,5 L9,5 Z M13,5 L13,7 L15,7 L15,5 L13,5 Z" id="Combined-Shape" fill="#335EEA" opacity="0.3"></path>
        <path d="M10,18 L14,18 L14,20 C14,20.5522847 13.5522847,21 13,21 L11,21 C10.4477153,21 10,20.5522847 10,20 L10,18 Z" id="Rectangle-3" fill="#335EEA" opacity="0.3"></path>
    </g>
</svg>
